X:3124
T:Johnny Mickey's
O:england
M:12/8
L:1/8
Q:240
C:Trad Irish
R:slide
K:D
E|FGF F2 E D3 D2 E|FGF F2 D E3 E2 F|
GFG B2 G FEF A2 F|EFE F2 E D3 D2:|
F|ABd A2 F A3 A2 F|ABd A2 F G3 G2 F|
GFG B2 G FEF A2 F|EFE F2 E D3 D2:|


